X: 20103
T: Jimmy Ward's
R: jig
M: 6/8
K: Dmixolydian
|:GFG G2 B|AGE GED|GFG AGE|GED D2 E|
GFG G2 B|AGE GAB|c2 A BGE|1 DED DEF:|2 DED D2 B||
|:c2 A BAG|ABA AGE|c2 A BGE|DED GAB|
c2 A BAG|ABA ABc|dcA AGE|1 GED D3:|2 GED DEF||

